public/assets/mock/objects/dot_spark-pink.svg

<svg width="45" height="43" viewBox="0 0 45 43" fill="none" xmlns="http://www.w3.org/2000/svg">
<g clip-path="url(#clip0_1886_4125)">
<path d="M15.6399 1.91988L14.5099 10.3699L5.08989 8.19988C4.53989 8.06988 4.08989 8.65988 4.36989 9.15988L10.2899 19.8099L1.79989 22.4499C1.24989 22.6199 1.16989 23.3799 1.67989 23.6499L9.50989 27.9199L6.13989 34.6699C5.86989 35.2199 6.41989 35.8099 6.98989 35.5699L17.0399 31.2599L17.7499 40.4599C17.7999 41.0499 18.5499 41.2899 18.9199 40.8199L24.5599 33.7699L31.8499 39.5999C32.2799 39.9399 32.9199 39.6399 32.9199 39.0899V28.7199L43.1799 27.2899C43.7399 27.2099 43.9499 26.5099 43.5199 26.1399L36.2199 19.8099L41.0599 15.4999C41.4799 15.1299 41.2699 14.4399 40.7199 14.3599L30.4199 12.8899L31.8299 2.99988C31.9199 2.38988 31.1899 2.00988 30.7399 2.41988L22.8999 9.54988L16.8499 1.61988C16.4899 1.14988 15.7499 1.34988 15.6799 1.92988L15.6399 1.91988Z" fill="#FF7F81" stroke="black" stroke-width="1.5" stroke-miterlimit="10"/>
</g>
<defs>
<clipPath id="clip0_1886_4125">
<rect width="44.89" height="42.09" fill="white"/>
</clipPath>
</defs>
</svg>

<?xml version="1.0" encoding="UTF-8"?>
<svg id="_레이어_1" data-name="레이어_1" xmlns="http://www.w3.org/2000/svg" width="45" height="43" version="1.1" xmlns:xlink="http://www.w3.org/1999/xlink" viewBox="0 0 45 43">
  <!-- Generator: Adobe Illustrator 29.6.1, SVG Export Plug-In . SVG Version: 2.1.1 Build 9)  -->
  <defs>
    <clipPath id="clippath">
      <rect width="44.89" height="42.09" fill="none"/>
    </clipPath>
    <pattern id="_6_dpi_90_dot_pink" data-name="6 dpi 90 dot pink" x="0" y="0" width="48" height="48" patternTransform="translate(-25 82)" patternUnits="userSpaceOnUse" viewBox="0 0 48 48">
      <g>
        <rect width="48" height="48" fill="none"/>
        <g>
          <path d="M24,58.8c5.96,0,10.8-4.83,10.8-10.8s-4.84-10.8-10.8-10.8-10.8,4.84-10.8,10.8,4.83,10.8,10.8,10.8Z" fill="#fcc"/>
          <circle cx="48" cy="48" r="10.8" fill="#fcc"/>
          <path d="M24,34.8c5.96,0,10.8-4.83,10.8-10.8s-4.84-10.8-10.8-10.8-10.8,4.84-10.8,10.8,4.83,10.8,10.8,10.8Z" fill="#fcc"/>
          <circle cx="48" cy="24" r="10.8" fill="#fcc"/>
          <path d="M36,46.8c5.96,0,10.8-4.83,10.8-10.8s-4.84-10.8-10.8-10.8-10.8,4.84-10.8,10.8,4.83,10.8,10.8,10.8Z" fill="#fcc"/>
          <path d="M12,46.8c5.96,0,10.8-4.83,10.8-10.8s-4.84-10.8-10.8-10.8S1.2,30.04,1.2,36s4.83,10.8,10.8,10.8Z" fill="#fcc"/>
          <path d="M36,22.8c5.96,0,10.8-4.83,10.8-10.8S41.96,1.2,36,1.2s-10.8,4.84-10.8,10.8,4.83,10.8,10.8,10.8Z" fill="#fcc"/>
          <path d="M12,22.8c5.96,0,10.8-4.83,10.8-10.8S17.96,1.2,12,1.2,1.2,6.04,1.2,12s4.83,10.8,10.8,10.8Z" fill="#fcc"/>
        </g>
        <g>
          <circle cy="48" r="10.8" fill="#fcc"/>
          <circle cy="24" r="10.8" fill="#fcc"/>
        </g>
        <g>
          <path d="M24,10.8c5.96,0,10.8-4.83,10.8-10.8s-4.84-10.8-10.8-10.8S13.2-5.96,13.2,0s4.83,10.8,10.8,10.8Z" fill="#fcc"/>
          <circle cx="48" r="10.8" fill="#fcc"/>
        </g>
        <circle r="10.8" fill="#fcc"/>
      </g>
    </pattern>
  </defs>
  <g clip-path="url(#clippath)">
    <path d="M15.64,1.92l-1.13,8.45-9.42-2.17c-.55-.13-1,.46-.72.96l5.92,10.65-8.49,2.64c-.55.17-.63.93-.12,1.2l7.83,4.27-3.37,6.75c-.27.55.28,1.14.85.9l10.05-4.31.71,9.2c.05.59.8.83,1.17.36l5.64-7.05,7.29,5.83c.43.34,1.07.04,1.07-.51v-10.37l10.26-1.43c.56-.08.77-.78.34-1.15l-7.3-6.33,4.84-4.31c.42-.37.21-1.06-.34-1.14l-10.3-1.47,1.41-9.89c.09-.61-.64-.99-1.09-.58l-7.84,7.13-6.05-7.93c-.36-.47-1.1-.27-1.17.31h-.04Z" fill="url(#_6_dpi_90_dot_pink)" stroke="#000" stroke-linecap="round" stroke-linejoin="bevel" stroke-width="1.01"/>
  </g>
</svg>
